X:1
T:The New Year, 11.11.11.11 refrain
T:The New Year, 11.11.11.11 refrain
T:Arthur Henry Mann, 1885
T:Public Domain Courtesy of the Cyber Hymnal™
C:Arthur Henry Mann, 1885
Z:Public Domain
Z:Courtesy of the Cyber Hymnal™
%%score ( 1 2 ) ( 3 4 )
L:1/8
Q:1/4=115
M:4/4
K:Ab
V:1 treble 
V:2 treble 
V:3 bass 
V:4 bass 
V:1
 [CA]3 [DE] [EA]2 [FB]2 | A4 z2 x6 | [CA]3 [DB] [Ec]2 [Fd]2 | c4 B4 | [Ec]3 [Ec] [=Ec]3 [Ec] | %5
 [Fc]4 (c2 e2) | [Ge]2 (GA) [EB]2 [B,=D]2 | [B,E]8 | [DB]3 [DB] [DA]3 [DB] | c4 [EA]4 | %10
 [Ec]3 [Ec] [EB]3 [Ec] | d8 | [=Ec]3 G [FA]2 [CF]2 | ([=Ec]3 G) [FA]4 | [Fd]3 [Ec] [FB]2 [FB]2 | %15
 B8 | [CA]3 [DE] [EA]2 [FB]2 | A4 z2 x6 | [CA]3 [DB] [Ec]2 [Fd]2 | c4 [GB]4 | %20
 [_Ge]3 [Gc] [GB]2 [GA]2 | [Af]4 [AB]4 | [Ae]3 [Ec] [EA]2 [GB]2 | A8 |] %24
V:2
 x8 | E6 (G4 D2) | x8 | (E2 A2 G2 F2) | x8 | x4 ^F4 | x2 E2 x4 | x8 | x8 | (C2 F2) x4 | x8 | %11
 (F2 A2 G2 F2) | x3 G x4 | x3 G x4 | x8 | (E6 D2) | x8 | E6 (G4 D2) | x8 | E2 A2 x4 | x8 | x8 | %22
 x8 | A8 |] %24
V:3
 [A,,E,]3 [B,,G,] [C,A,]2 [D,D]2 | C4 z2 x6 | [F,A,]3 [F,A,] [E,A,]2 [D,A,]2 | (A,2 C2 E2 D2) | %4
 [A,C]3 [A,C] [G,B,]3 [G,B,] | (C2 E2) (=D2 C2) | [B,E]2 B,2 (F,G,) [B,,A,]2 | [E,G,]8 | %8
 [E,G,]3 [E,G,] [F,A,]3 [G,E] | (E2 D2) ([A,C]2 [_G,B,]2) | [F,=A,]3 [F,A,] [G,B,]3 [A,E] | %11
 (D2 C2 B,2 A,2) | [C,G,]3 [=E,C] [F,C]2 [F,A,]2 | ([C,G,]3 [=E,C]) [F,C]4 | %14
 [B,,B,]3 [C,=A,] [D,B,]2 [=D,_A,]2 | (A,4 G,4) | [A,,E,]3 [B,,G,] [C,A,]2 [D,D]2 | C4 z2 x6 | %18
 [F,A,]3 [F,A,] [E,A,]2 [D,A,]2 | (A,2 C2 E2 [B,D]2) | [A,C]3 [A,C] [B,D]2 [CE]2 | [DF]4 [D,F]4 | %22
 [E,C]3 [E,A,] [E,C]2 [E,D]2 | [A,C]8 |] %24
V:4
 x8 | E,6 (B,4 =E,2) | x8 | E,8 | x8 | A,4 =A,4 | x2 B,2 B,,2 x2 | x8 | x8 | A,4 x4 | x8 | %11
 B,4 B,,4 | x8 | x8 | x8 | E,8 | x8 | E,6 (B,4 =E,2) | x8 | E,6 x2 | x8 | x8 | x8 | x8 |] %24

